Sources/FrostedUI/Resources/Icons.xcassets/barChart16.imageset/bar-chart-16.svg

<svg width="16" height="16" viewBox="0 0 16 16" fill="none" xmlns="http://www.w3.org/2000/svg" data-fui-icon="true">
  <path
    d="M2.25 9.5C2.66421 9.5 3 9.83579 3 10.25V13.25C3 13.6642 2.66421 14 2.25 14C1.83579 14 1.5 13.6642 1.5 13.25V10.25C1.5 9.83579 1.83579 9.5 2.25 9.5ZM6.25 4.5C6.66421 4.5 7 4.83579 7 5.25V13.25C7 13.6642 6.66421 14 6.25 14C5.83579 14 5.5 13.6642 5.5 13.25V5.25C5.5 4.83579 5.83579 4.5 6.25 4.5ZM10.25 7C10.6642 7 11 7.33579 11 7.75V13.25C11 13.6642 10.6642 14 10.25 14C9.83579 14 9.5 13.6642 9.5 13.25V7.75C9.5 7.33579 9.83579 7 10.25 7ZM14.25 1C14.6642 1 15 1.33579 15 1.75V13.25C15 13.6642 14.6642 14 14.25 14C13.8358 14 13.5 13.6642 13.5 13.25V1.75C13.5 1.33579 13.8358 1 14.25 1Z"
    fill="currentColor"
  />
</svg>

<svg xmlns="http://www.w3.org/2000/svg" width="16" height="16" fill="none" data-fui-icon="true" viewBox="0 0 16 16"><path fill="currentColor" d="M2.25 9.5a.75.75 0 0 1 .75.75v3a.75.75 0 0 1-1.5 0v-3a.75.75 0 0 1 .75-.75m4-5a.75.75 0 0 1 .75.75v8a.75.75 0 0 1-1.5 0v-8a.75.75 0 0 1 .75-.75m4 2.5a.75.75 0 0 1 .75.75v5.5a.75.75 0 0 1-1.5 0v-5.5a.75.75 0 0 1 .75-.75m4-6a.75.75 0 0 1 .75.75v11.5a.75.75 0 0 1-1.5 0V1.75a.75.75 0 0 1 .75-.75"/></svg>
